public/themes/adult/roulette-chip.svg

<?xml version="1.0" encoding="UTF-8" standalone="no"?>
<!-- Uploaded to: SVG Repo, www.svgrepo.com, Generator: SVG Repo Mixer Tools -->

<svg
   width="800px"
   height="800px"
   viewBox="-3 0 41 41"
   version="1.1"
   id="svg1"
   sodipodi:docname="roulette-chip.svg"
   inkscape:version="1.4.2 (ebf0e940, 2025-05-08)"
   xmlns:inkscape="http://www.inkscape.org/namespaces/inkscape"
   xmlns:sodipodi="http://sodipodi.sourceforge.net/DTD/sodipodi-0.dtd"
   xmlns="http://www.w3.org/2000/svg"
   xmlns:svg="http://www.w3.org/2000/svg">
  <defs
     id="defs1" />
  <sodipodi:namedview
     id="namedview1"
     pagecolor="#ffffff"
     bordercolor="#000000"
     borderopacity="0.25"
     inkscape:showpageshadow="2"
     inkscape:pageopacity="0.0"
     inkscape:pagecheckerboard="0"
     inkscape:deskcolor="#d1d1d1"
     inkscape:zoom="0.57545201"
     inkscape:cx="431.83445"
     inkscape:cy="512.64049"
     inkscape:window-width="1712"
     inkscape:window-height="971"
     inkscape:window-x="0"
     inkscape:window-y="39"
     inkscape:window-maximized="1"
     inkscape:current-layer="svg1" />
  <title
     id="title1">roulette-chip</title>
  <desc
     id="desc1">Created with Sketch.</desc>
  <g
     id="icons"
     stroke="none"
     stroke-width="1"
     fill="none"
     fill-rule="evenodd"
     style="fill:#ff368a;fill-opacity:1">
    <g
       id="ui-gambling-website-lined-icnos-casinoshunter"
       transform="translate(-2553.000000, -540.000000)"
       fill="#1C1C1F"
       fill-rule="nonzero"
       style="fill:#ff368a;fill-opacity:1">
      <g
         id="1"
         transform="translate(1350.000000, 120.000000)"
         style="fill:#ff368a;fill-opacity:1">
        <path
           d="M1228.09115,457.325161 L1228.11287,457.298379 C1228.72015,457.830372 1229.47563,458.197346 1230.30929,458.329302 L1230.56167,458.361768 L1230.5615,460.999971 C1229.00739,460.904099 1227.59023,460.302109 1226.47282,459.356801 L1226.25338,459.16321 L1228.09115,457.325161 L1228.11287,457.298379 Z M1234.00819,457.188288 L1235.79972,458.98129 C1235.82309,459.004659 1235.84844,459.024838 1235.87581,459.041346 C1234.78029,460.101112 1233.34035,460.807021 1231.74019,460.974862 L1231.43833,460.999982 L1231.43825,458.361776 C1232.4291,458.263419 1233.32288,457.835116 1234.00819,457.188288 Z M1226.61659,454.438341 L1226.63802,454.436239 C1226.71126,455.177501 1226.96915,455.864498 1227.36507,456.450598 L1227.51991,456.665565 L1227.47124,456.705254 L1225.64619,458.530714 C1224.76226,457.487249 1224.17791,456.181949 1224.02592,454.74761 L1224.00002,454.438325 L1226.61659,454.438341 L1226.63802,454.436239 Z M1235.36198,454.436239 L1235.38341,454.438341 L1237.99998,454.438325 C1237.91371,455.837318 1237.41732,457.125341 1236.62955,458.183642 L1236.45632,458.406861 L1236.41963,458.361383 L1234.58345,456.525146 C1235.00848,455.923089 1235.28561,455.209163 1235.36198,454.436239 Z M1203.34807,448.683913 C1203.51108,448.934562 1203.71986,449.083951 1203.94737,449.083951 L1224.68867,449.083402 C1223.63047,450.439858 1223,452.146302 1223,454 C1223,455.457627 1223.38983,456.824204 1224.07093,458.00116 L1208.84377,458 C1207.18809,458 1205.4959,456.578973 1204.92487,454.814825 L1203.79873,451.33719 L1203.47066,450.384997 L1203.41731,450.214856 C1203.30302,449.835859 1203.24449,449.530312 1203.25099,449.229893 C1203.25532,449.029892 1203.28861,448.847569 1203.34807,448.683913 Z M1231,450.493272 C1232.93671,450.493272 1234.50673,452.063287 1234.50673,454 C1234.50673,455.936713 1232.93671,457.506728 1231,457.506728 C1229.06329,457.506728 1227.49327,455.936713 1227.49327,454 C1227.49327,452.063287 1229.06329,450.493272 1231,450.493272 Z M1225.64568,449.469887 L1227.47124,451.294746 L1227.51991,451.334435 C1227.09024,451.894567 1226.79274,452.561419 1226.67406,453.288363 L1226.63803,453.563692 L1226.61659,453.561659 L1224.00003,453.5615 C1224.09598,452.006031 1224.69894,450.587751 1225.64568,449.469887 Z M1234.40885,451.244037 L1236.27414,449.376873 C1237.20077,450.433138 1237.81516,451.770129 1237.97315,453.243698 L1237.99997,453.5615 L1235.38341,453.561659 L1235.36197,453.563692 C1235.28422,452.776922 1234.99845,452.051286 1234.56042,451.442545 L1234.40885,451.244037 L1236.27414,449.376873 Z M1230.5615,447.000029 L1230.56198,449.627681 L1230.56369,449.638031 C1229.62943,449.730353 1228.78136,450.116006 1228.11588,450.701681 L1228.10385,450.688065 L1228.10385,450.688065 L1228.09115,450.674839 L1226.25239,448.837706 C1227.40102,447.780797 1228.9033,447.102322 1230.5615,447.000029 Z M1231.43834,449.61659 L1231.43833,447.000018 C1232.95211,447.093365 1234.33597,447.666905 1235.43945,448.57019 L1235.65636,448.755198 L1233.79158,450.620295 C1233.20392,450.134345 1232.48739,449.798719 1231.70091,449.672326 L1231.43624,449.638025 L1231.43834,449.61659 L1231.43833,447.000018 Z M1234.26316,444.488889 C1234.749,444.488889 1235.14943,444.851099 1235.20415,445.317738 L1235.21053,445.42716 L1235.21053,446.740741 C1235.21053,446.884169 1235.17803,447.020081 1235.11994,447.141649 C1233.91642,446.416613 1232.50686,446 1231,446 C1229.15226,446 1227.45082,446.626425 1226.09648,447.678489 L1203.94737,447.679012 C1203.46152,447.679012 1203.0611,447.316802 1203.00637,446.850163 L1203,446.740741 L1203,445.42716 C1203,444.945981 1203.36572,444.549401 1203.83689,444.495201 L1203.94737,444.488889 L1234.26316,444.488889 Z M1219.10526,420 C1220.51795,420 1221.66316,421.134212 1221.66316,422.533333 C1221.66316,423.636323 1220.95143,424.574675 1219.958,424.922478 L1219.957,426.747 L1221.81184,426.746829 C1222.16546,425.76745 1223.11062,425.066667 1224.22105,425.066667 C1225.63374,425.066667 1226.77895,426.200879 1226.77895,427.6 C1226.77895,428.999121 1225.63374,430.133333 1224.22105,430.133333 C1223.11062,430.133333 1222.16546,429.43255 1221.81184,428.453171 L1219.957,428.452 L1219.95806,429.590885 C1220.43642,429.829654 1220.7967,430.261843 1220.93692,430.786469 L1224.223,443.083657 L1213.987,443.083657 L1217.27361,430.786469 C1217.41787,430.246737 1217.7854,429.824452 1218.25194,429.591176 L1218.252,428.452 L1216.39869,428.453171 C1216.04507,429.43255 1215.0999,430.133333 1213.98947,430.133333 C1212.57679,430.133333 1211.43158,428.999121 1211.43158,427.6 C1211.43158,426.200879 1212.57679,425.066667 1213.98947,425.066667 C1215.0999,425.066667 1216.04507,425.76745 1216.39869,426.746829 L1218.252,426.747 L1218.25223,424.922375 C1217.25896,424.57449 1216.54737,423.636214 1216.54737,422.533333 C1216.54737,421.134212 1217.69258,420 1219.10526,420 Z"
           id="roulette-chip"
           style="fill:#ff368a;fill-opacity:1" />
      </g>
    </g>
  </g>
</svg>

<?xml version="1.0" encoding="UTF-8" standalone="no"?>
<!-- Uploaded to: SVG Repo, www.svgrepo.com, Generator: SVG Repo Mixer Tools -->

<svg
   width="682.92645"
   height="799.99963"
   viewBox="-3 0 34.999981 40.999981"
   version="1.1"
   id="svg1"
   sodipodi:docname="roulette-chip.svg"
   inkscape:version="1.4.2 (ebf0e940, 2025-05-08)"
   xmlns:inkscape="http://www.inkscape.org/namespaces/inkscape"
   xmlns:sodipodi="http://sodipodi.sourceforge.net/DTD/sodipodi-0.dtd"
   xmlns="http://www.w3.org/2000/svg"
   xmlns:svg="http://www.w3.org/2000/svg">
  <defs
     id="defs1" />
  <sodipodi:namedview
     id="namedview1"
     pagecolor="#ffffff"
     bordercolor="#000000"
     borderopacity="0.25"
     inkscape:showpageshadow="2"
     inkscape:pageopacity="0.0"
     inkscape:pagecheckerboard="0"
     inkscape:deskcolor="#d1d1d1"
     inkscape:zoom="0.57545201"
     inkscape:cx="374.48822"
     inkscape:cy="512.64049"
     inkscape:window-width="896"
     inkscape:window-height="245"
     inkscape:window-x="0"
     inkscape:window-y="39"
     inkscape:window-maximized="0"
     inkscape:current-layer="svg1" />
  <title
     id="title1">roulette-chip</title>
  <desc
     id="desc1">Created with Sketch.</desc>
  <g
     id="icons"
     stroke="none"
     stroke-width="1"
     fill="none"
     fill-rule="evenodd"
     style="fill:#ff368a;fill-opacity:1"
     transform="translate(-3)">
    <g
       id="ui-gambling-website-lined-icnos-casinoshunter"
       transform="translate(-2553,-540)"
       fill="#1C1C1F"
       fill-rule="nonzero"
       style="fill:#ff368a;fill-opacity:1">
      <g
         id="1"
         transform="translate(1350,120)"
         style="fill:#ff368a;fill-opacity:1">
        <path
           d="m 1228.0912,457.32516 0.022,-0.0268 c 0.6073,0.53199 1.3627,0.89897 2.1964,1.03092 l 0.2524,0.0325 -2e-4,2.6382 c -1.5541,-0.0959 -2.9713,-0.69786 -4.0887,-1.64317 l -0.2194,-0.19359 1.8378,-1.83805 0.022,-0.0268 z m 5.917,-0.13687 1.7915,1.793 c 0.023,0.0234 0.049,0.0435 0.076,0.0601 -1.0955,1.05976 -2.5354,1.76567 -4.1356,1.93351 L 1231.4382,461 v -2.6382 c 0.9908,-0.0984 1.8846,-0.52666 2.5699,-1.17349 z m -7.3916,-2.74995 0.021,-0.002 c 0.073,0.74126 0.3312,1.42826 0.7271,2.01436 l 0.1548,0.21497 -0.049,0.0397 -1.825,1.82546 c -0.8839,-1.04346 -1.4683,-2.34876 -1.6203,-3.7831 l -0.026,-0.30928 2.6166,1e-5 0.021,-0.002 z m 8.7454,-0.002 0.021,0.002 2.6166,-10e-6 c -0.086,1.39899 -0.5827,2.68701 -1.3704,3.74531 l -0.1733,0.22322 -0.037,-0.0455 -1.8361,-1.83623 c 0.425,-0.60206 0.7021,-1.31599 0.7785,-2.08891 z m -32.0139,-5.75233 c 0.163,0.25065 0.3718,0.40004 0.5993,0.40004 l 20.7413,-5.5e-4 C 1223.6305,450.43986 1223,452.1463 1223,454 c 0,1.45763 0.3898,2.8242 1.0709,4.00116 L 1208.8438,458 c -1.6557,0 -3.3479,-1.42103 -3.9189,-3.18518 l -1.1262,-3.47763 -0.328,-0.95219 -0.053,-0.17014 c -0.1143,-0.379 -0.1728,-0.68455 -0.1663,-0.98497 0,-0.2 0.038,-0.38232 0.097,-0.54598 z M 1231,450.49327 c 1.9367,0 3.5067,1.57002 3.5067,3.50673 0,1.93671 -1.57,3.50673 -3.5067,3.50673 -1.9367,0 -3.5067,-1.57002 -3.5067,-3.50673 0,-1.93671 1.57,-3.50673 3.5067,-3.50673 z m -5.3543,-1.02338 1.8255,1.82486 0.049,0.0397 c -0.4297,0.56014 -0.7272,1.22699 -0.8458,1.95393 l -0.036,0.27533 -0.021,-0.002 -2.6166,-1.6e-4 c 0.096,-1.55547 0.6989,-2.97375 1.6457,-4.09161 z m 8.7632,1.77415 1.8652,-1.86717 c 0.9267,1.05627 1.5411,2.39326 1.6991,3.86683 l 0.027,0.3178 -2.6166,1.6e-4 -0.021,0.002 c -0.078,-0.78677 -0.3635,-1.5124 -0.8016,-2.12115 l -0.1515,-0.1985 1.8652,-1.86717 z m -3.8474,-4.24401 5e-4,2.62765 v 0.0104 c -0.9343,0.0923 -1.7823,0.47798 -2.4478,1.06365 l -0.012,-0.0136 v 0 l -0.013,-0.0132 -1.8388,-1.83713 c 1.1486,-1.05691 2.6509,-1.73539 4.3091,-1.83768 z m 0.8768,2.61656 v -2.61657 c 1.5138,0.0933 2.8977,0.66688 4.0012,1.57017 l 0.2169,0.18501 -1.8648,1.86509 c -0.5877,-0.48595 -1.3042,-0.82157 -2.0907,-0.94796 l -0.2647,-0.0343 v -0.0214 -2.61657 z m 2.8249,-5.1277 c 0.4858,0 0.8862,0.36221 0.941,0.82885 l 0.01,0.10942 v 1.31358 c 0,0.14343 -0.032,0.27934 -0.091,0.40091 C 1233.9164,446.41661 1232.5069,446 1231,446 c -1.8477,0 -3.5492,0.62642 -4.9035,1.67849 l -22.1491,5.2e-4 c -0.4859,0 -0.8863,-0.36221 -0.941,-0.82885 l -0.01,-0.10942 v -1.31358 c 0,-0.48118 0.3657,-0.87776 0.8369,-0.93196 l 0.1105,-0.006 z M 1219.1053,420 c 1.4127,0 2.5579,1.13421 2.5579,2.53333 0,1.10299 -0.7118,2.04135 -1.7052,2.38915 l -10e-4,1.82452 1.8548,-1.7e-4 c 0.3537,-0.97938 1.2988,-1.68016 2.4093,-1.68016 1.4126,0 2.5578,1.13421 2.5578,2.53333 0,1.39912 -1.1452,2.53333 -2.5578,2.53333 -1.1105,0 -2.0556,-0.70078 -2.4093,-1.68016 l -1.8548,-10e-4 v 1.13889 c 0.4783,0.23876 0.8386,0.67095 0.9788,1.19558 l 3.2861,12.29719 h -10.236 l 3.2866,-12.29719 c 0.1443,-0.53973 0.5118,-0.96202 0.9783,-1.19529 l 10e-5,-1.13918 -1.8533,10e-4 c -0.3536,0.97938 -1.2988,1.68016 -2.4092,1.68016 -1.4127,0 -2.5579,-1.13421 -2.5579,-2.53333 0,-1.39912 1.1452,-2.53333 2.5579,-2.53333 1.1104,0 2.0556,0.70078 2.4092,1.68016 l 1.8533,1.7e-4 2e-4,-1.82463 c -0.9932,-0.34788 -1.7048,-1.28616 -1.7048,-2.38904 0,-1.39912 1.1452,-2.53333 2.5579,-2.53333 z"
           id="roulette-chip"
           style="fill:#ff368a;fill-opacity:1" />
      </g>
    </g>
  </g>
</svg>
